X: 34032
T: Reel De Bergerville
R: reel
M: 4/4
K: Bminor
|:"Bm"B3B BABc|dcde f/g/f d2|B3B BABc|"F#7"dedc "Bm"B/c/B A2|
"Bm"B3B BABc|dcde f/g/f d2|B3B BABc|1 "F#7"dedc "Bm"B/c/B A2:|2 "F#7"dedc "Bm"B/c/BB2||
K: Dmaj
|:"D"A2BA F2A2|dcde f/g/f d2|A2BA F2FG/A/|GFED "A"E2E2|
"D"A2BA F2A2|dcde f/g/f d2|A2BA F2f2|1 "A"edef "D"d4:|2 "A"edef "D"d2c2||

